packages/core/src/svgs/tokens/mono/BRISE.svg

<svg width="24" height="24" viewBox="0 0 24 24" fill="none" xmlns="http://www.w3.org/2000/svg">
<path d="M5.70527 5.66665C5.67692 5.65028 5.65331 5.62683 5.63675 5.59858C5.6202 5.57034 5.61127 5.53827 5.61084 5.50554V3.89443C5.61084 3.39201 5.81043 2.91015 6.1657 2.55488C6.52098 2.1996 7.00283 2 7.50526 2H7.72748C8.16082 2 8.58863 2.11667 8.9608 2.33889L17.6164 7.48886C17.8498 7.62753 18.0436 7.82414 18.179 8.05968C18.3143 8.29521 18.3864 8.56168 18.3886 8.83329V9.22217C18.3886 10.0166 17.9664 10.7499 17.2774 11.1499L5.94417 17.7221C5.91065 17.7415 5.87265 17.7518 5.83394 17.7519C5.79522 17.752 5.75715 17.7421 5.72347 17.723C5.6898 17.7039 5.66168 17.6763 5.64192 17.6432C5.62217 17.6098 5.61145 17.572 5.61084 17.5332V6.7333C5.61113 6.68469 5.62418 6.637 5.64868 6.595C5.67318 6.55301 5.70827 6.51818 5.75045 6.49399C5.79262 6.46982 5.84041 6.45713 5.88902 6.45721C5.93765 6.45727 5.98539 6.4701 6.02749 6.49442L11.6886 9.73334C11.7568 9.7721 11.8134 9.82836 11.8527 9.89615C11.8921 9.96395 11.913 10.0409 11.913 10.1194C11.913 10.1978 11.8921 10.2748 11.8527 10.3427C11.8134 10.4105 11.7568 10.4666 11.6886 10.5055L9.79975 11.5944C9.73209 11.6334 9.65548 11.6539 9.57744 11.6539C9.4994 11.6539 9.42279 11.6334 9.35526 11.5944L8.55525 11.1278C8.53809 11.1178 8.51858 11.1126 8.49875 11.1128C8.47891 11.113 8.45948 11.1184 8.44248 11.1287C8.42547 11.1388 8.41149 11.1534 8.40202 11.1708C8.39256 11.1883 8.38792 11.2079 8.38859 11.2277V12.8833C8.38859 12.9721 8.48304 13.0221 8.55525 12.9833L14.8996 9.31662C14.917 9.30702 14.9315 9.29293 14.9416 9.27583C14.9517 9.25873 14.957 9.23925 14.957 9.2194C14.957 9.19955 14.9517 9.18007 14.9416 9.16297C14.9315 9.14587 14.917 9.13178 14.8996 9.12218L8.55525 5.45554C8.53809 5.44561 8.51858 5.44046 8.49875 5.44062C8.47891 5.44077 8.45948 5.44624 8.44248 5.45645C8.42547 5.46665 8.41149 5.48122 8.40202 5.49865C8.39256 5.51608 8.38792 5.53571 8.38859 5.55553V6.42775C8.3893 6.5061 8.36927 6.58326 8.33055 6.65138C8.29183 6.7195 8.2358 6.77617 8.16812 6.81566C8.10042 6.85513 8.02352 6.87602 7.94516 6.87619C7.86679 6.87636 7.78978 6.85581 7.72193 6.81664L5.70527 5.66665Z" fill="white"/>
<path d="M5.63908 18.5334C5.62945 18.5389 5.62165 18.547 5.6167 18.557C5.61175 18.5669 5.60987 18.578 5.61131 18.589V20.1057C5.61131 20.3544 5.66031 20.6007 5.75551 20.8307C5.85071 21.0605 5.99025 21.2694 6.16617 21.4453C6.34209 21.6212 6.55092 21.7606 6.78077 21.8559C7.01061 21.9511 7.25696 22.0001 7.50573 22.0001H7.73351C8.16684 22.0001 8.5891 21.889 8.96684 21.6668L17.289 16.8113C17.6244 16.615 17.9025 16.3343 18.0956 15.997C18.2886 15.6597 18.3897 15.2777 18.389 14.889C18.3879 14.5097 18.2846 14.1378 18.0901 13.8123C17.8955 13.4868 17.6168 13.2197 17.2834 13.0391L16.6002 12.6391C16.5046 12.584 16.3964 12.5549 16.2862 12.5549C16.176 12.5549 16.0678 12.584 15.9724 12.6391L13.8058 13.8891C13.7758 13.9067 13.7509 13.9318 13.7337 13.9621C13.7164 13.9923 13.7074 14.0265 13.7074 14.0612C13.7074 14.0961 13.7164 14.1302 13.7337 14.1604C13.7509 14.1906 13.7758 14.2157 13.8058 14.2335L14.939 14.889C14.955 14.899 14.9684 14.9129 14.9776 14.9295C14.9868 14.9459 14.9916 14.9646 14.9916 14.9835C14.9916 15.0025 14.9868 15.021 14.9776 15.0376C14.9684 15.054 14.955 15.0679 14.939 15.0779L8.55572 18.7001C8.53896 18.7098 8.51997 18.7149 8.50062 18.715C8.48126 18.7151 8.46222 18.7101 8.44538 18.7006C8.42854 18.691 8.41449 18.6773 8.40461 18.6606C8.39474 18.644 8.38937 18.6251 8.38906 18.6056V17.6224C8.38846 17.5543 8.37006 17.4877 8.33568 17.4291C8.3013 17.3705 8.25216 17.3219 8.19314 17.2882C8.13412 17.2544 8.0673 17.2367 7.99932 17.2369C7.93134 17.2371 7.86459 17.255 7.80573 17.289L5.63908 18.5334Z" fill="white"/>
</svg>

<svg xmlns="http://www.w3.org/2000/svg" width="24" height="24" fill="none" viewBox="0 0 24 24">
    <path fill="#fff" d="M5.705 5.667a.19.19 0 0 1-.094-.161V3.894A1.894 1.894 0 0 1 7.505 2h.222c.434 0 .862.117 1.234.339l8.655 5.15a1.58 1.58 0 0 1 .773 1.344v.39c0 .794-.423 1.527-1.112 1.927L5.944 17.722a.22.22 0 0 1-.302-.079.2.2 0 0 1-.031-.11v-10.8a.278.278 0 0 1 .416-.239l5.662 3.24a.443.443 0 0 1 .164.609.44.44 0 0 1-.164.162l-1.89 1.09a.45.45 0 0 1-.444 0l-.8-.467a.11.11 0 0 0-.113 0 .11.11 0 0 0-.053.1v1.655c0 .09.094.14.166.1L14.9 9.317a.111.111 0 0 0 0-.195L8.555 5.456a.111.111 0 0 0-.166.1v.872a.444.444 0 0 1-.667.389zM5.64 18.533a.06.06 0 0 0-.029.056v1.517A1.896 1.896 0 0 0 7.506 22h.228a2.4 2.4 0 0 0 1.233-.333l8.322-4.856a2.22 2.22 0 0 0 1.1-1.922 2.11 2.11 0 0 0-1.106-1.85l-.683-.4a.63.63 0 0 0-.628 0l-2.166 1.25a.2.2 0 0 0-.099.172.2.2 0 0 0 .099.172l1.133.656a.11.11 0 0 1 .039.149.1.1 0 0 1-.039.04L8.556 18.7a.111.111 0 0 1-.167-.094v-.984a.39.39 0 0 0-.583-.333z"/>
</svg>
